X:555
T:BAdd555-  My father has forty good shillings
S:SMM #453
Q:1/4=120
L:1/8
M:9/8
K:Dm
d|A d d d3/2 e/2 d cA2|B3A2G F/ D3/2 D|\
G3/2 A/ B A3/2 =B/ ^c.d2d|\
A d d d3/2e/ d cA2|B3A2G F/ D3/2 D|B3/2 A/ B A3/2 =B/ ^cd2||\
"Chorus"A/ d/|f2f e3/2 f/ d c A2|B3/2A2G F D f|\
e3/2 f/ d ^c3/2 d/ ed2A/d/|f3/2 f/ fe2d c/ A3/2 A|\
B3A2 G F/ D3/2 f|e3/2 f/ d ^c d e .d2A/ A/|\
B2B A3/2 B/ G F/ D3/2|]

